X:1
T:Title
%%score { ( 1 3 ) | ( 2 4 ) }
L:1/8
M:4/4
K:C
V:1 treble nm="Grand Piano"
V:3 treble 
V:2 bass 
V:4 bass 
V:1
 z4 z2[Q:1/4=100] G2 | c3 G ABcd | e2 d2 [Ec]2 G2 | AB [Gc]2 [Gd]2 [Ge]2 | d6 G2 | c3 G ABcd | %6
 e2 d2 c2 [Ge]2 | [Gd]3 [B,G] [EGc]2 [DB]A | G6 G2 | z4 z2 G2 | [EG][_E^F][=EG]A [CEG]2 [CEG]2 | %11
 z4 z2 ^F2 | d6 d2 | e2 de f2 e2 | [Ad]2 [^Ge]2 [Ac]2 [Ad]2 | c3 c cBAB | [Ec]6 z2 | G2 GG B3 B | %18
 d3 B G2 z G | B3 B d2 d2 |[M:3/4] f6 |[M:1/4] d2 |[M:4/4] e2 de f2 e2 | [Ad]2 [^Ge]2 [Ac]2 [Ad]2 | %24
 c3 c cBAB |[M:3/4] [Ec]6 |] %26
V:2
 z4 z2 G,2 | C3 G, A,B,[K:treble]CD | [CG]2 [G,B,F]2[K:bass] [C,C]2 [E,C]2 | %3
 [F,CF]2 [E,C]2 [D,B,]2 [C,C]2 | [G,B,G]6 G,2 | C3 G, A,B,CD | %6
 [CG]2 [G,B,F]2[K:bass] [A,CE]2 [C,A,]2 | [D,B,]3 E, A,,2 z C | [G,B,]6 G,2 | %9
 [G,B,D]3 [G,CE] [G,DF]2 [CE]B, | [C,C]2 z F C,2 C,2 | F,3 F, D,2 z A, | [G,B,G]6 [G,B,G]2 | %13
 [CG]2 [B,DG]2 [A,CF]2 [G,CG]2 | [F,A,]2 [E,B,]2[K:treble] [A,C]2 [F,F]2 | %15
 [G,EG]3 [G,_E^F] [G,D=F]2 [G,DF]2 | [C,C]6 z2 | [G,,G,]2 [G,,G,][G,,G,] [B,,B,]3 [B,,B,] | %18
 [D,D]3 [B,,B,] [G,,G,]2 z G, | [G,DG]3 [G,DG] [G,B,G]2 [G,B,G]2 |[M:3/4] [G,B,G]6 | %21
[M:1/4] [G,B,G]2 |[M:4/4] [CG]2 [B,DG]2 [A,CF]2 [G,CG]2 | [F,A,]2 [E,B,]2[K:treble] [A,C]2 [F,F]2 | %24
 [G,EG]3 [G,_E^F] [G,D=F]2 [G,DF]2 |[M:3/4][K:bass] [C,C]6 |] %26
V:3
 x8 | x8 | x8 | x8 | x8 | x8 | x8 | z4 z2 ^F2 | x8 | G3 G G2 z D | x8 | %11
 [CFA]3 [CFA] [C^FA]2 [B,B]c | x8 | x8 | x8 | x8 | x8 | x8 | x8 | x8 |[M:3/4] x6 |[M:1/4] x2 | %22
[M:4/4] x8 | x8 | x8 |[M:3/4] x6 |] %26
V:4
 x8 | x6[K:treble] x2 | x4[K:bass] x4 | x8 | x8 | x8 | x4[K:bass] x4 | z4 z2 D,2 | x8 | z4 z2 G,2 | %10
 z2 [C,C]2 z4 | z4 z2 D,2 | x8 | x8 | x4[K:treble] x4 | x8 | x8 | x8 | x8 | x8 |[M:3/4] x6 | %21
[M:1/4] x2 |[M:4/4] x8 | x4[K:treble] x4 | x8 |[M:3/4][K:bass] x6 |] %26

